X: 1
T: the Maid I Adore
R: waltz
Z: 2012 John Chambers <jc:trillian.mit.edu>
S: handwritten MS from Rich Armstrong
M: 3/4
L: 1/4
K: Ador
e |\
"Am"A3 | A3 | e>AB | "Em"AGE |\
G3 | G3 | B>GB | "Am"A>GA |\
"Am"c3 | "Dm"d3 | "Am"e>fg | "Em"B>AG |\
"Am"A>ce | "Dm"d>cB | "Am"A3 | A3 |]
[| "Am"[e3c3] | [e3c3] | "Dm"d>eg | edB |\
"Em"[B3G3] | [B3G3] | B>AB | "Am"A>GA |\
"Am"[c3A3] | "Dm"[d3A3] | "Am"e>fg | "Em"B>AG |\
"Am"A>ce | "Dm"d>cB | "Am"A3 | A2 |]
